src/lib/packages/icons/src/assets/line/google.svg

<svg width="24" height="24" viewBox="0 0 24 24" fill="none" xmlns="http://www.w3.org/2000/svg">
<path d="M22.08 10.2097C22.02 9.84975 21.71 9.57974 21.34 9.57974H11.96C11.55 9.57974 11.21 9.91974 11.21 10.3297V14.0898C11.21 14.4998 11.55 14.8398 11.96 14.8398H16.31C16.01 15.4798 15.54 16.0298 14.92 16.4498C14.09 17.0098 13.09 17.2898 11.96 17.2898C9.76002 17.2898 7.80002 15.8398 7.08002 13.6598C6.90002 13.1398 6.81 12.5798 6.81 11.9998C6.81 11.4198 6.90003 10.8797 7.09003 10.3297C7.81003 8.15974 9.76997 6.70975 11.97 6.70975C13.26 6.70975 14.37 7.13976 15.27 7.99976C15.56 8.27976 16.03 8.27975 16.32 7.98975L19.16 5.13977C19.3 4.99977 19.38 4.79976 19.38 4.59976C19.38 4.39976 19.29 4.19976 19.14 4.06976C17.19 2.22976 14.71 1.25977 11.97 1.25977C7.89997 1.25977 4.23997 3.52976 2.40997 7.18976C1.64997 8.70976 1.26001 10.3298 1.26001 12.0098C1.26001 13.6898 1.64997 15.3197 2.40997 16.8297C4.23997 20.4897 7.90997 22.7598 11.97 22.7598C14.76 22.7598 17.21 21.8498 19.06 20.1398C21.12 18.2298 22.25 15.4197 22.25 12.2397C22.25 11.5797 22.2 10.9198 22.08 10.2298V10.2097ZM18.03 19.0197C16.46 20.4797 14.36 21.2397 11.96 21.2397C8.46002 21.2397 5.31999 19.2798 3.73999 16.1398C3.07999 14.8398 2.75 13.4397 2.75 11.9897C2.75 10.5397 3.07999 9.14975 3.73999 7.83975C5.31999 4.68975 8.46002 2.73975 11.96 2.73975C14.04 2.73975 15.95 3.38977 17.52 4.63977L15.74 6.42975C14.67 5.61975 13.38 5.19977 11.96 5.19977C9.12002 5.19977 6.57997 7.06976 5.65997 9.84976C5.42997 10.5598 5.31 11.2797 5.31 11.9897C5.31 12.6997 5.42997 13.4598 5.65997 14.1298C6.57997 16.9098 9.11002 18.7798 11.96 18.7798C13.37 18.7798 14.69 18.3997 15.76 17.6797C16.97 16.8597 17.79 15.6298 18.07 14.2198C18.11 13.9998 18.06 13.7698 17.91 13.5998C17.77 13.4298 17.56 13.3297 17.33 13.3297H12.71V11.0698H20.69C20.73 11.4598 20.75 11.8297 20.75 12.2097C20.75 14.9697 19.79 17.3798 18.04 19.0098L18.03 19.0197Z" fill="currentColor"/>
</svg>

<svg xmlns="http://www.w3.org/2000/svg" width="24" height="24" fill="none"><path fill="currentColor" d="M22.08 10.21a.752.752 0 0 0-.74-.63h-9.38c-.41 0-.75.34-.75.75v3.76c0 .41.34.75.75.75h4.35c-.3.64-.77 1.19-1.39 1.61-.83.56-1.83.84-2.96.84-2.2 0-4.16-1.45-4.88-3.63-.18-.52-.27-1.08-.27-1.66 0-.58.09-1.12.28-1.67.72-2.17 2.68-3.62 4.88-3.62 1.29 0 2.4.43 3.3 1.29.29.28.76.28 1.05-.01l2.84-2.85c.14-.14.22-.34.22-.54s-.09-.4-.24-.53c-1.95-1.84-4.43-2.81-7.17-2.81-4.07 0-7.73 2.27-9.56 5.93-.76 1.52-1.15 3.14-1.15 4.82 0 1.68.39 3.31 1.15 4.82 1.83 3.66 5.5 5.93 9.56 5.93 2.79 0 5.24-.91 7.09-2.62 2.06-1.91 3.19-4.72 3.19-7.9 0-.66-.05-1.32-.17-2.01v-.02Zm-4.05 8.81c-1.57 1.46-3.67 2.22-6.07 2.22-3.5 0-6.64-1.96-8.22-5.1-.66-1.3-.99-2.7-.99-4.15 0-1.45.33-2.84.99-4.15 1.58-3.15 4.72-5.1 8.22-5.1 2.08 0 3.99.65 5.56 1.9l-1.78 1.79c-1.07-.81-2.36-1.23-3.78-1.23-2.84 0-5.38 1.87-6.3 4.65-.23.71-.35 1.43-.35 2.14 0 .71.12 1.47.35 2.14.92 2.78 3.45 4.65 6.3 4.65 1.41 0 2.73-.38 3.8-1.1a5.446 5.446 0 0 0 2.31-3.46.732.732 0 0 0-.16-.62.746.746 0 0 0-.58-.27h-4.62v-2.26h7.98c.04.39.06.76.06 1.14 0 2.76-.96 5.17-2.71 6.8l-.01.01Z"/></svg>
